file/fifa.svg

<svg clip-rule="evenodd" fill-rule="evenodd" stroke-linejoin="round" stroke-miterlimit="1.41421" viewBox="0 0 560 400" xmlns="http://www.w3.org/2000/svg"><path d="m15.3 89.2v121.3h38.1v-43.8h26.8l10.2-26.8h-37v-24.5h45l9.7-26.2zm104.9 0v121.3h38.1v-121.3zm186.5 81.7 14.2-50.1 15.4 50.7h-29.6zm34.8-81.4h-39.3l-43.8 121.3h36.4l4.6-16.5h42.6l5.1 16.5h37.6zm-157.3-.3v121.3h38.1v-43.8h26.8l10.2-26.8h-37v-24.5h45l9.7-26.2z" fill="#131a3c" fill-rule="nonzero" transform="matrix(.974553 0 0 .974553 85.0893 53.817)"/></svg>

<?xml version="1.0" encoding="UTF-8" standalone="no"?>
<!DOCTYPE svg PUBLIC "-//W3C//DTD SVG 1.1//EN" "http://www.w3.org/Graphics/SVG/1.1/DTD/svg11.dtd">
<svg width="100%" height="100%" viewBox="0 0 560 400" version="1.1" xmlns="http://www.w3.org/2000/svg" xmlns:xlink="http://www.w3.org/1999/xlink" xml:space="preserve" xmlns:serif="http://www.serif.com/" style="fill-rule:evenodd;clip-rule:evenodd;stroke-linejoin:round;stroke-miterlimit:1.41421;">
    <g id="logo" transform="matrix(0.974553,0,0,0.974553,85.0893,53.817)">
        <path d="M15.3,89.2L15.3,210.5L53.4,210.5L53.4,166.7L80.2,166.7L90.4,139.9L53.4,139.9L53.4,115.4L98.4,115.4L108.1,89.2L15.3,89.2M120.2,89.2L120.2,210.5L158.3,210.5L158.3,89.2L120.2,89.2M306.7,170.9L320.9,120.8L336.3,171.5L306.7,171.5L306.7,170.9ZM341.5,89.5L302.2,89.5L258.4,210.8L294.8,210.8L299.4,194.3L342,194.3L347.1,210.8L384.7,210.8L341.5,89.5M184.2,89.2L184.2,210.5L222.3,210.5L222.3,166.7L249.1,166.7L259.3,139.9L222.3,139.9L222.3,115.4L267.3,115.4L277,89.2L184.2,89.2" style="fill:rgb(19,26,60);fill-rule:nonzero;"/>
    </g>
</svg>
